X: 30111
T: Old Black Guard, The
R: barndance
M: 4/4
K: Dmajor
|:(3ABc|d2F2 A2BA|G2C2 E3D|CDEF GABc|(3dfe (3dcB A2 (3ABc|
d2F2 A2BA|G2C2 E2ef|gfed cAcd|1 eddc d2:|2 eddc d2AF||
|:DEFA dced|c2B2 G3B|c2B2 G3A|B2A2 F3E|
DEFA dced|c2B2 G2ef|gfed cAcd|1 eddc d2AF:|2 eddc d4||

